packages/website/src/assets/bottom.svg

<?xml version="1.0" encoding="UTF-8"?>
<svg width="223px" height="224px" viewBox="0 0 223 224" version="1.1" xmlns="http://www.w3.org/2000/svg" xmlns:xlink="http://www.w3.org/1999/xlink">
    <!-- Generator: sketchtool 62 (101010) - https://sketch.com -->
    <title>C1BB99AE-D3BE-4145-83FB-F8C565711452</title>
    <desc>Created with sketchtool.</desc>
    <defs>
        <rect id="path-1" x="0.121433079" y="0.5" width="221.779678" height="223.5" rx="4"></rect>
        <linearGradient x1="50%" y1="0%" x2="50%" y2="100%" id="linearGradient-3">
            <stop stop-color="#9BD2EB" offset="0%"></stop>
            <stop stop-color="#B8E5F0" offset="76.4991554%"></stop>
        </linearGradient>
        <path d="M0.121433079,81.9999013 C0.121433079,79.7908168 1.90815325,78 4.12837686,78 L220.114489,78 C222.327463,78 224.121433,79.7933059 224.121433,81.9999013 L224.121433,220.000099 C224.121433,222.209183 222.334713,224 220.114489,224 L4.12837686,224 C1.91540292,224 0.121433079,222.206694 0.121433079,220.000099 L0.121433079,81.9999013 Z" id="path-4"></path>
    </defs>
    <g id="Page-1" stroke="none" stroke-width="1" fill="none" fill-rule="evenodd">
        <g id="Reef-Detail-full---no-live-feed" transform="translate(-643.000000, -556.000000)">
            <g id="Group-15" transform="translate(643.305383, 555.500000)">
                <mask id="mask-2" fill="white">
                    <use xlink:href="#path-1"></use>
                </mask>
                <use id="Rectangle-13-Copy-4" fill="#E3F1F7" xlink:href="#path-1"></use>
                <g id="Rectangle-13-Copy-4" mask="url(#mask-2)">
                    <use fill="#0FACBE" xlink:href="#path-4"></use>
                    <use fill="url(#linearGradient-3)" xlink:href="#path-4"></use>
                </g>
                <path d="M0.121433079,205 C0.121433079,205 10.2695855,208.753328 63.7325474,208.753328 C91.6337251,208.753328 134.095931,205.977516 168.321897,205 C199.678163,204.104445 224.121433,205 224.121433,205 L224.121433,224 L0.121433079,224 L0.121433079,205 Z" id="Rectangle-13-Copy-4" fill="#D2C4A7" mask="url(#mask-2)"></path>
                <g id="Group-14" mask="url(#mask-2)" fill="#E3F1F7">
                    <g transform="translate(-6.565789, 69.000000)">
                        <ellipse id="Oval" cx="12.3542005" cy="12.0879493" rx="12.3542005" ry="12.0879493"></ellipse>
                        <ellipse id="Oval-Copy-2" cx="31.7833011" cy="12.0879493" rx="12.3542005" ry="12.0879493"></ellipse>
                        <ellipse id="Oval-Copy-3" cx="51.2017982" cy="12.0879493" rx="12.3542005" ry="12.0879493"></ellipse>
                        <ellipse id="Oval-Copy-4" cx="70.6202954" cy="12.0879493" rx="12.3542005" ry="12.0879493"></ellipse>
                        <ellipse id="Oval-Copy-5" cx="90.0387926" cy="12.0879493" rx="12.3542005" ry="12.0879493"></ellipse>
                        <ellipse id="Oval-Copy-6" cx="109.45729" cy="12.0879493" rx="12.3542005" ry="12.0879493"></ellipse>
                        <ellipse id="Oval-Copy-7" cx="128.875787" cy="12.0879493" rx="12.3542005" ry="12.0879493"></ellipse>
                        <ellipse id="Oval-Copy-8" cx="148.294284" cy="12.0879493" rx="12.3542005" ry="12.0879493"></ellipse>
                        <ellipse id="Oval-Copy-9" cx="167.712781" cy="12.0879493" rx="12.3542005" ry="12.0879493"></ellipse>
                        <ellipse id="Oval-Copy-13" cx="187.131278" cy="12.0879493" rx="12.3542005" ry="12.0879493"></ellipse>
                        <ellipse id="Oval-Copy-14" cx="206.549776" cy="12.0879493" rx="12.3542005" ry="12.0879493"></ellipse>
                        <ellipse id="Oval-Copy-15" cx="225.968273" cy="12.0879493" rx="12.3542005" ry="12.0879493"></ellipse>
                    </g>
                </g>
            </g>
        </g>
    </g>
</svg>

<svg viewBox="0 0 223 224" xmlns="http://www.w3.org/2000/svg" xmlns:xlink="http://www.w3.org/1999/xlink"><defs><linearGradient id="prefix__d" x1="50%" x2="50%" y2="100%"><stop stop-color="#9BD2EB" offset="0"/><stop stop-color="#B8E5F0" offset=".765"/></linearGradient><rect id="prefix__a" x=".121" y=".5" width="221.78" height="223.5" rx="4"/><path id="prefix__c" d="M.121 82c0-2.21 1.787-4 4.007-4h215.99a4.005 4.005 0 014.007 4v138c0 2.21-1.786 4-4.007 4H4.128a4.005 4.005 0 01-4.007-4V82z"/></defs><g transform="translate(.31 -.5)" fill="none" fill-rule="evenodd"><mask id="prefix__b" fill="#fff"><use xlink:href="#prefix__a"/></mask><use fill="#E3F1F7" xlink:href="#prefix__a"/><g mask="url(#prefix__b)"><use fill="#0FACBE" xlink:href="#prefix__c"/><use fill="url(#prefix__d)" xlink:href="#prefix__c"/></g><path d="M.121 205s10.148 3.753 63.611 3.753c27.901 0 70.363-2.775 104.59-3.753 31.356-.896 55.8 0 55.8 0v19h-224v-19z" fill="#D2C4A7" mask="url(#prefix__b)"/><g fill="#E3F1F7" mask="url(#prefix__b)"><g transform="translate(-6.566 69)"><ellipse cx="12.354" cy="12.088" rx="12.354" ry="12.088"/><ellipse cx="31.783" cy="12.088" rx="12.354" ry="12.088"/><ellipse cx="51.202" cy="12.088" rx="12.354" ry="12.088"/><ellipse cx="70.62" cy="12.088" rx="12.354" ry="12.088"/><ellipse cx="90.039" cy="12.088" rx="12.354" ry="12.088"/><ellipse cx="109.46" cy="12.088" rx="12.354" ry="12.088"/><ellipse cx="128.88" cy="12.088" rx="12.354" ry="12.088"/><ellipse cx="148.29" cy="12.088" rx="12.354" ry="12.088"/><ellipse cx="167.71" cy="12.088" rx="12.354" ry="12.088"/><ellipse cx="187.13" cy="12.088" rx="12.354" ry="12.088"/><ellipse cx="206.55" cy="12.088" rx="12.354" ry="12.088"/><ellipse cx="225.97" cy="12.088" rx="12.354" ry="12.088"/></g></g></g></svg>
